X:1
T:Sweeping This Way
T:Sweeping This Way
T:Judson Van DeVenter, arr. by Haldor Lillenas
T:Mrs. C. H. Good, 1927
T:Public Domain Courtesy of the Cyber Hymnal™
T:Public Domain Courtesy of the Cyber Hymnal™
C:Judson Van DeVenter, arr. by Haldor Lillenas
Z:Public Domain
Z:Courtesy of the Cyber Hymnal™
%%score ( 1 2 ) ( 3 4 )
L:1/8
Q:1/4=105
M:9/8
K:F
V:1 treble 
V:2 treble 
V:3 bass 
V:4 bass 
V:1
 [FA][F^G][FA] | [CF]3 [CF]3 [FA][F^G][FA] | [EB]6 [EB][EA][EB] | [EG]3 [EG]3 [Ac][^G=B][Ac] | %4
w: 1.~O- ver the|hill- tops, down from the|skies, Com- ing from|glo- ry— lift up your|
w: 2.~As He has|prom- ised, so shall it|be: Bless- ings from|glo- ry on you and|
w: 3.~Pro- phets have|told it: in the last|days Hearts shall be|filled with glo- ri- ous|
w: 4.~Tar- ry for|pow- er— this is our|need. Pa- tient- ly|la- bor, sow- ing the|
 [FA]6 [FA][F^G][FA] | [CF]3 [CF]3 [_EA][E^G][EA] | [DB]3- [DB]2 [DF] [DF][CE][B,D] | %7
w: eyes! While we are|watch- ing, and while we|pray, * A might- y re-|
w: me— Wa- ters a-|bun- dant, floods to o’er-|flow. * A might- y re-|
w: praise; Our sons and|daugh- ters, both shall pro-|claim * The news of re-|
w: seed. Soon comes the|har- vest— glo- ri- ous|day! * A might- y re-|
 [A,C]3 [CF]2 [CF] [FA]F[EG] | [CF]6 ||"^Refrain" [Fc][F=B][Fc] | [FA]3 [FA]3 [Fc][F=B][Fc] | %11
w: viv- al is sweep- ing this|way.|||
w: viv- al is com- ing, I|know.|||
w: demp- ti- on thro’ His great|name.|||
w: viv- al is sweep- ing this|way.|||
 [EB]3- [EB]2 [EB] [GB][^FA][GB] | [EG]3 [EG]2 [Ec] [Ec][E=B][Ec] | [FA]6 [FA][F^G][FA] | %14
w: |||
w: |||
w: |||
w: |||
 [CF]3 [CF]3 [_EA][E^G][EA] | [DB]3- [DB]2 [DF] [DF][CE][B,D] | [A,C]3 [CF]2 [CF] [FA]F[EG] | %17
w: |||
w: |||
w: |||
w: |||
 [CF]6 |] %18
w: |
w: |
w: |
w: |
V:2
 x3 | x9 | x9 | x9 | x9 | x9 | x9 | x7 F x | x6 || x3 | x9 | x9 | x9 | x9 | x9 | x9 | x7 F x | %17
 x6 |] %18
V:3
 [F,C][F,=B,][F,C] | [F,A,]3 [F,A,]3 [F,C][F,=B,][F,C] | [G,C]6 [C,C][C,C][C,C] | %3
w: ~ ~ ~|~ ~ ~ ~ ~|~ ~ ~ ~|
 [C,C]3 [C,C]3 [C,C][C,C][C,C] | [F,C]6 [F,C][F,=B,][F,C] | [F,A,]3 [F,A,]3 [F,C][F,C]F, | %6
w: ~ ~ ~ ~ ~|~ ~ ~ ~|~ ~ ~ ~ ~|
 [B,,F,]3- [B,,F,]2 [B,,B,] [B,,B,][B,,B,][B,,F,] | [C,F,]3 [C,A,]2 [C,A,] [C,C][C,A,][C,B,] | %8
w: ~ * ~ ~ ~ ~|~ ~ ~ ~ ~ ~|
 [F,,A,]6 || [F,A,][F,^G,][F,A,] | [F,C]3 [F,C]3 [F,A,][F,^G,][F,A,] | %11
w: ~|Sweep- ing this|way, yes, sweep- ing this|
 [G,C]3- [G,C]2 [G,C] [C,C][C,C][C,C] | [C,C]3 [C,C]2 [C,C] [C,G,][C,G,][C,C] | %13
w: way, * A might- y re-|viv- al is sweep- ing this|
 [F,C]6 [F,C][F,=B,][F,C] | [F,A,]3 [F,A,]3 [F,C][F,C][F,C] | %15
w: way. Keep on be-|liev- ing, trust and o-|
 [B,,B,]3- [B,,B,]2 [B,,B,] [B,,B,][B,,B,][B,,F,] | [C,F,]3 [C,A,]2 [C,A,] [C,C][C,A,][C,B,] | %17
w: bey; * A might- y re-|viv- al is sweep- ing this|
 [F,A,]6 |] %18
w: way.|
V:4
 x3 | x9 | x9 | x9 | x9 | x8 F, | x9 | x9 | x6 || x3 | x9 | x9 | x9 | x9 | x9 | x9 | x9 | x6 |] %18

